X:552
T:
N:Av komminister O. Laurin;
S:efter »Florsen» i Burs.
R:vals
O:Gotland, Burs
M:3/4
L:1/8
K:D
FG|(Ad)(FG)(BA)|(Ad)(FB) A2|(fg)(eA)(ce)|(ba)(fd)(AG)|
(Ad)(FG)(BA)|(Ad)(FB) A2|(fg)(eA)(ce)|d4::fg|a4 (bc')|
(d'a)(fb) a2|(ag)(eb) a2|(af)(dA)(de)|
f4 (ga)|(ba)(ag)(fg)|(ag)(eg)(fe)|d4::Af|d4 Af|d4 A2|
(dA)(FA)(db)|a4 gf|e4 (Af)|e4 d2|(dc)(Bc)(ba)|f6|
f3 (def)|g3 (efg)|a2 aaaa|(ba)(ag)(gf)|(fe)(ed)(dc)| % rättelse i originalet  e -> g
(cB)(BA)(FG)|A2 A,A,(B,C)|D4:|

